X: 20701
Q: "Allegretto"
M: 2/4
L: 1/16
K: C
(c2B2) (A2G2) | (E2G2) (c2e2) | (g3e) (d3c) | (e8 | d4) z2G2 |
(E2G2) (G2c2) | c6 ^f2 | (a2^f2) (d2c2) | {c}B6 d2 |
(e^fgf) (gedc) | (B2d2) (^F2A2) | G6 G2 | f4 (edcB) |
(c2e2) g2z2 | f4 (edcB) | c6 d2 | (e2a2) (f2d2) |
(c2e2) (d2B2) | A4 z2G2 | c6 _B2 | A6 A2 |
d6 c2 | {c}B4 z2G2 | c6 d2 | e4 (g2f2) |
(g2f2) (d2B2) | (^gaga) (=gfed) | c4 B4 | c4 z2G2 |
cdef gabc' | b2d'2d2f2 | e2d2c2B2 | c4 z2 |]




